common/icons/svgs/snowflake.svg

<svg xmlns="http://www.w3.org/2000/svg" width="24" height="24" viewBox="0 0 24 24">
  <g fill="none" fill-rule="evenodd" transform="translate(-216 -318)">
    <rect width="504" height="450" fill="#FFF"/>
    <g transform="translate(216 318)">
      <rect width="24" height="24"/>
      <path fill="#1D1D1D" fill-rule="nonzero" d="M22.0338325,13.173608 L17.7369014,14.2622472 L14.0209074,12.0649938 L17.7268853,9.86774032 L22.0338325,10.9863421 L22.2341557,10.9863421 C22.6467141,10.9985843 23.0011077,10.6963358 23.0529398,10.2880331 C23.1047719,9.87973037 22.837084,9.49896263 22.4344788,9.40831461 L19.6900519,8.70918851 L22.0338325,7.30094881 C22.4492247,6.99971624 22.568783,6.43398765 22.3106234,5.99122294 C22.0524639,5.54845824 21.5002635,5.37217019 21.0322169,5.58309613 L18.6383555,6.99133583 L19.3294703,4.25475655 C19.4145333,3.97303093 19.3374411,3.6674853 19.1288039,3.45943999 C18.9201668,3.25139468 18.6137467,3.1745159 18.3312112,3.25932923 C18.0486758,3.34414256 17.8357452,3.57692338 17.7769661,3.86524345 L16.6952212,8.14988764 L13.0192918,10.307191 L13.0192918,6.08247191 L16.1843972,2.99632959 C16.3937353,2.78937424 16.4764456,2.48677844 16.4013721,2.2025271 C16.3262985,1.91827576 16.1048466,1.69555342 15.820435,1.61825743 C15.5360234,1.54096144 15.2318611,1.62083491 15.0225231,1.82779026 L13.0192918,3.82529338 L13.0192918,1.05875156 C13.0192918,0.507156305 12.5708532,0.06 12.0176761,0.06 C11.4644991,0.06 11.0160605,0.507156305 11.0160605,1.05875156 L11.0160605,3.82529338 L9.01282923,1.82779026 C8.68922066,1.52441289 8.18024286,1.54006337 7.8759955,1.86274658 C7.57174813,2.1854298 7.58744347,2.69295219 7.91105203,2.99632959 L11.0160605,6.08247191 L11.0160605,10.307191 L7.41024421,8.14988764 L6.31848316,3.86524345 C6.19502827,3.45636525 5.7709776,3.21654411 5.35568956,3.32073715 C4.94040151,3.42493019 4.68067067,3.83630761 4.76597892,4.25475655 L5.45709371,6.99133583 L3.07324849,5.58309613 C2.76404366,5.35886811 2.35379463,5.3297198 2.01582964,5.50796621 C1.67786464,5.68621262 1.4711423,6.04075833 1.4830018,6.4218095 C1.4948613,6.80286067 1.72323373,7.14394221 2.07163285,7.30094881 L4.43544576,8.70918851 L1.69101891,9.40831461 C1.28841371,9.49896263 1.0207258,9.87973037 1.07255791,10.2880331 C1.12439001,10.6963358 1.47878359,10.9985843 1.89134203,10.9863421 L2.09166516,10.9863421 L6.38859625,9.89770287 L10.0945741,12.0949563 L6.38859625,14.2922097 L2.09166516,13.173608 C1.80913164,13.0887882 1.50270981,13.16566 1.2940679,13.3737006 C1.08542599,13.5817411 1.00832675,13.887285 1.09338329,14.1690126 C1.17843984,14.4507401 1.41188819,14.6630618 1.70103506,14.7216729 L4.44546191,15.420799 L2.05160054,16.8290387 C1.70320142,16.9860453 1.47482899,17.3271268 1.46296949,17.708178 C1.45110998,18.0892292 1.65783233,18.4437749 1.99579732,18.6220213 C2.33376232,18.8002677 2.74401135,18.7711194 3.05321618,18.5468914 L5.4370614,17.1386517 L4.73593045,19.875231 C4.67511827,20.0846453 4.70276568,20.3097438 4.81246236,20.4983352 C4.92215904,20.6869266 5.10437712,20.8226304 5.31686752,20.8739825 L5.51719065,20.8739825 C5.88086309,20.8718973 6.19752109,20.6258564 6.28843469,20.2747316 L7.41024421,15.9800999 L11.0160605,13.8227965 L11.0160605,18.0475156 L7.91105203,21.1636205 C7.64821048,21.3437543 7.51752834,21.6621679 7.57830983,21.9743634 C7.63909132,22.286559 7.87976209,22.5330865 8.19110452,22.6020706 C8.50244695,22.6710547 8.82517351,22.5493591 9.01282923,22.2922097 L11.0160605,20.2947066 L11.0160605,23.0612484 C11.0160605,23.6128437 11.4644991,24.06 12.0176761,24.06 C12.5708532,24.06 13.0192918,23.6128437 13.0192918,23.0612484 L13.0192918,20.3046941 L15.0225231,22.3021973 C15.3391086,22.5882298 15.8250663,22.5762992 16.1271515,22.2750778 C16.4292367,21.9738564 16.4412015,21.4892883 16.1543487,21.173608 L13.0192918,18.0375281 L13.0192918,13.812809 L16.6952212,15.9800999 L17.7869822,20.2647441 C17.8778958,20.6158689 18.1945538,20.8619098 18.5582263,20.863995 L18.7585494,20.863995 C18.9710398,20.8126429 19.1532579,20.676939 19.2629546,20.4883477 C19.3726512,20.2997563 19.4002986,20.0746578 19.3394865,19.8652434 L18.6383555,17.1286642 L21.0322169,18.5468914 C21.3414217,18.7711194 21.7516708,18.8002677 22.0896358,18.6220213 C22.4276007,18.4437749 22.6343231,18.0892292 22.6224636,17.708178 C22.6106041,17.3271268 22.3822317,16.9860453 22.0338325,16.8290387 L19.6499873,15.420799 L22.3944142,14.7216729 C22.7820671,14.5880622 23.0059503,14.184129 22.9131578,13.7857483 C22.8203654,13.3873676 22.4408597,13.1231756 22.0338325,13.173608 L22.0338325,13.173608 Z"/>
    </g>
  </g>
</svg>

<svg xmlns="http://www.w3.org/2000/svg" viewbox="0 0 24 24"><path class="icon__shape" fill-rule="nonzero" d="M22.034 13.174l-4.297 1.088-3.716-2.197 3.706-2.197 4.307 1.118h.2a.8.8 0 0 0 .2-1.578L19.69 8.71l2.344-1.408a.997.997 0 0 0 .277-1.31 1.003 1.003 0 0 0-1.279-.408l-2.394 1.408.691-2.736a.797.797 0 0 0-.2-.796.803.803 0 0 0-1.352.406L16.695 8.15l-3.676 2.157V6.082l3.165-3.086a.821.821 0 0 0-.364-1.378.827.827 0 0 0-.797.21l-2.004 1.997V1.06A1 1 0 0 0 12.018.06a1 1 0 0 0-1.002.999v2.766L9.013 1.828a.806.806 0 0 0-1.137.035.8.8 0 0 0 .035 1.133l3.105 3.086v4.225L7.41 8.15 6.318 3.865a.802.802 0 0 0-1.552.39l.691 2.736-2.384-1.408a1.004 1.004 0 0 0-1.057-.075.998.998 0 0 0 .056 1.793l2.363 1.408-2.744.7a.8.8 0 0 0 .2 1.577h.2L6.39 9.898l3.706 2.197-3.706 2.197-4.297-1.118a.803.803 0 0 0-.798.2.797.797 0 0 0 .407 1.348l2.744.699-2.393 1.408a.999.999 0 1 0 1.001 1.718l2.384-1.408-.701 2.736a.797.797 0 0 0 .58.999h.201a.8.8 0 0 0 .771-.6L7.41 15.98l3.606-2.157v4.225l-3.105 3.116a.798.798 0 0 0 .28 1.438.802.802 0 0 0 .822-.31l2.003-1.997v2.766a1 1 0 0 0 1.002.999 1 1 0 0 0 1.001-.999v-2.756l2.004 1.997a.803.803 0 0 0 1.104-.027.797.797 0 0 0 .027-1.101l-3.135-3.136v-4.225l3.676 2.167 1.092 4.285a.8.8 0 0 0 .771.599h.2a.801.801 0 0 0 .581-.999l-.7-2.736 2.393 1.418c.31.224.72.253 1.058.075a.998.998 0 0 0-.056-1.793l-2.384-1.408 2.744-.7a.799.799 0 0 0-.36-1.547z"/></svg>
